src/img/HomePage/Chopsticks/1RightTop.svg

<?xml version="1.0" encoding="UTF-8"?> <svg xmlns="http://www.w3.org/2000/svg" width="181" height="141" viewBox="0 0 181 141" fill="none"> <path fill-rule="evenodd" clip-rule="evenodd" d="M85.4623 136.42C78.1612 130.991 75.5094 123.364 75.1948 106.887C74.9873 96.0719 72.514 85.8077 68.4438 78.8761C67.039 76.4842 62.946 70.7384 59.3475 66.108C53.5025 58.5874 52.7465 57.1519 52.2585 52.6529C51.4675 45.3471 54.0092 36.6632 58.4614 31.4641C64.3723 24.5606 72.0073 22.7943 84.7661 25.3787C98.6374 28.1889 113.277 35.5372 123.088 44.6142C130.274 51.263 130.716 51.5094 138.846 53.3835C164.62 59.3225 182.431 78.5909 179.919 97.8183C177.812 113.945 163.902 124.001 133.151 131.63C125.518 133.524 123.685 134.05 115.94 136.57C101.531 141.257 91.9035 141.21 85.4623 136.42ZM86.559 133.9C84.7921 132.51 82.447 129.6 81.3477 127.432C79.4392 123.671 79.4343 123.456 81.2324 122.756C82.5398 122.247 82.8343 121.782 82.1937 121.24C81.6856 120.809 80.8405 120.589 80.3147 120.75C79.0208 121.146 78.1255 118.347 78.2224 114.207C78.2767 111.9 78.6337 110.858 79.3217 110.999C79.8823 111.114 80.4601 110.63 80.605 109.924C80.7583 109.177 80.325 108.709 79.5688 108.803C78.6251 108.921 78.2021 107.208 78.0231 102.54C77.8877 98.9898 76.5801 92.328 75.1034 87.6561C72.7533 80.221 71.4686 77.9327 64.4742 68.7178C60.0987 62.9523 56.077 56.9322 55.5362 55.3394C54.0416 50.9336 55.438 41.6184 58.3569 36.5224C61.4217 31.1742 65.8463 28.2121 72.3469 27.1579C76.8867 26.4213 78.4542 26.5882 86.8757 28.7069C101.77 32.4547 113.218 38.4913 122.079 47.2693C127.854 52.9898 129.177 53.6817 139.232 56.2333C149.723 58.8957 153.412 60.5662 160.755 65.9774C167.904 71.2458 174.292 79.6153 176.402 86.4785C177.796 91.0109 177.818 92.6722 176.573 98.9073C175.3 105.273 174.715 106.595 171.508 110.355C166.254 116.513 155.055 122.646 142.767 126.094C137.268 127.637 128.255 130.238 122.738 131.873C99.0737 138.885 93.3083 139.208 86.559 133.9ZM107.627 130.803C108.49 129.437 110.487 129.591 110.197 131.002C110.054 131.698 109.294 132.135 108.506 131.973C107.719 131.811 107.323 131.285 107.627 130.803ZM103.428 125.161C102.992 124.151 104.613 123.49 105.297 124.4C106 125.336 105.618 126.385 104.646 126.186C104.178 126.09 103.63 125.628 103.428 125.161ZM93.1674 122.165C93.2576 121.726 93.9416 121.491 94.6875 121.645C95.4333 121.798 95.9698 122.282 95.8797 122.722C95.7895 123.161 95.1054 123.395 94.3596 123.242C93.6137 123.089 93.0772 122.604 93.1674 122.165ZM89.6307 116.444C89.7208 116.005 90.2014 115.729 90.6987 115.831C91.1959 115.933 91.529 116.376 91.4389 116.815C91.3487 117.255 90.868 117.531 90.3708 117.429C89.8735 117.327 89.5405 116.884 89.6307 116.444ZM129.506 124.143C129.795 122.732 131.692 123.377 131.946 124.972C132.036 125.535 131.465 125.863 130.678 125.701C129.89 125.539 129.363 124.838 129.506 124.143ZM137.217 123.297C137.367 122.564 137.901 122.184 138.403 122.451C138.905 122.718 139.246 123.279 139.161 123.696C139.075 124.113 138.541 124.493 137.974 124.541C137.408 124.589 137.067 124.029 137.217 123.297ZM143.377 116.236C143.512 115.577 144.233 115.163 144.979 115.316C145.725 115.469 146.224 116.134 146.089 116.793C145.954 117.452 145.233 117.866 144.487 117.713C143.741 117.56 143.241 116.895 143.377 116.236ZM151.383 116.885C150.549 115.777 151.142 114.916 152.539 115.203C153.285 115.356 153.826 115.819 153.741 116.233C153.534 117.24 151.974 117.672 151.383 116.885ZM103.759 102.694C103.849 102.255 104.533 102.021 105.279 102.174C106.025 102.327 106.561 102.812 106.471 103.251C106.381 103.69 105.697 103.925 104.951 103.771C104.205 103.618 103.668 103.134 103.759 102.694ZM133.755 103.439C133.905 102.707 134.439 102.327 134.941 102.594C135.443 102.861 135.784 103.421 135.699 103.838C135.613 104.255 135.079 104.636 134.512 104.684C133.946 104.731 133.605 104.172 133.755 103.439ZM104.352 96.0938C104.627 95.6583 105.238 95.3808 105.711 95.4778C106.184 95.5748 106.636 96.0705 106.717 96.5792C106.798 97.0879 106.187 97.3654 105.358 97.1953C104.529 97.0251 104.077 96.5294 104.352 96.0938ZM125.606 97.2375C125.691 96.8237 126.213 96.3472 126.766 96.1777C127.319 96.0081 127.656 96.4303 127.516 97.1149C127.375 97.7995 126.853 98.2768 126.356 98.1747C125.859 98.0727 125.521 97.6513 125.606 97.2375ZM132.458 96.8672C132.733 96.4317 133.344 96.1542 133.817 96.2512C134.29 96.3482 134.742 96.8439 134.823 97.3526C134.904 97.8613 134.294 98.1388 133.464 97.9687C132.635 97.7985 132.183 97.3028 132.458 96.8672ZM97.7044 89.2194C96.871 88.111 97.4632 87.2502 98.861 87.5371C99.6068 87.6901 100.148 88.1533 100.063 88.5671C99.856 89.5744 98.2958 90.0059 97.7044 89.2194ZM124.215 90.2431C124.305 89.8037 124.989 89.5695 125.735 89.7226C126.481 89.8756 127.017 90.3604 126.927 90.7997C126.837 91.2391 126.153 91.4733 125.407 91.3202C124.661 91.1672 124.125 90.6824 124.215 90.2431ZM98.5705 82.0663C98.7057 81.4073 99.2232 80.9516 99.7205 81.0536C100.218 81.1557 100.514 81.7784 100.379 82.4374C100.243 83.0965 99.7259 83.5522 99.2286 83.4501C98.7314 83.3481 98.4352 82.7254 98.5705 82.0663ZM74.0296 76.0358C73.1962 74.9274 73.7883 74.0666 75.186 74.3534C75.9319 74.5065 76.4729 74.9697 76.388 75.3835C76.1812 76.3908 74.621 76.8223 74.0296 76.0358ZM163.168 88.6639C163.318 87.9314 163.852 87.5515 164.354 87.8185C164.856 88.0856 165.197 88.6459 165.112 89.0629C165.026 89.4799 164.492 89.8606 163.925 89.9083C163.359 89.956 163.017 89.3965 163.168 88.6639ZM83.7725 71.537C83.9077 70.878 84.4252 70.4223 84.9225 70.5243C85.4197 70.6264 85.7159 71.2491 85.5806 71.9081C85.4454 72.5672 84.9279 73.0229 84.4306 72.9208C83.9334 72.8188 83.6372 72.1961 83.7725 71.537ZM75.9556 69.36C76.8183 67.9936 78.8151 68.1479 78.5256 69.5586C78.3828 70.2544 77.6223 70.691 76.8348 70.5294C76.0474 70.3678 75.6513 69.842 75.9556 69.36ZM173.427 89.1736C173.57 88.4778 174.33 88.0412 175.118 88.2028C176.714 88.5304 176.084 90.1934 174.306 90.343C173.679 90.3958 173.284 89.8694 173.427 89.1736ZM86.1744 66.5773C85.5677 65.1724 86.9065 64.6213 87.8569 65.8853C88.3883 66.5921 88.312 67.0418 87.6254 67.2521C87.0624 67.4246 86.4096 67.1209 86.1744 66.5773ZM92.9749 68.0145C93.065 67.5752 93.7491 67.3409 94.495 67.494C95.2408 67.6471 95.7773 68.1318 95.6871 68.5712C95.597 69.0105 94.9129 69.2448 94.1671 69.0917C93.4212 68.9386 92.8847 68.4539 92.9749 68.0145ZM127.658 73.4676C127.748 73.0283 128.432 72.7941 129.178 72.9471C129.924 73.1002 130.46 73.5849 130.37 74.0243C130.28 74.4636 129.596 74.6979 128.85 74.5448C128.104 74.3917 127.568 73.907 127.658 73.4676ZM67.4862 60.1295C68.3488 58.7632 70.3457 58.9174 70.0561 60.3281C69.9133 61.0239 69.1529 61.4606 68.3654 61.2989C67.578 61.1373 67.1818 60.6115 67.4862 60.1295ZM138.547 73.205C138.33 72.7025 138.787 72.4217 139.561 72.5807C140.336 72.7397 140.897 73.2295 140.807 73.6688C140.717 74.1082 140.261 74.3892 139.792 74.293C139.324 74.1969 138.764 73.7074 138.547 73.205ZM102.644 65.2813C101.792 64.149 102.367 63.2823 103.779 63.5721C104.525 63.7252 105.025 64.3897 104.889 65.0487C104.633 66.2965 103.495 66.4141 102.644 65.2813ZM95.5749 62.998C94.7229 61.8658 95.2985 60.9991 96.7106 61.2889C97.4565 61.442 97.9561 62.1065 97.8208 62.7655C97.5647 64.0133 96.4259 64.1309 95.5749 62.998ZM132.785 69.7799C131.952 68.6714 132.544 67.8106 133.942 68.0975C134.688 68.2506 135.229 68.7137 135.144 69.1275C134.937 70.1349 133.377 70.5664 132.785 69.7799ZM149.517 72.5428C149.653 71.8838 150.17 71.4281 150.667 71.5301C151.165 71.6322 151.461 72.2549 151.326 72.9139C151.19 73.573 150.673 74.0287 150.176 73.9266C149.678 73.8246 149.382 73.2019 149.517 72.5428ZM73.7384 56.1581C73.8887 55.4256 74.4228 55.0456 74.9248 55.3127C75.4268 55.5797 75.7678 56.14 75.6823 56.557C75.5967 56.974 75.0625 57.3547 74.4959 57.4024C73.9293 57.4502 73.5881 56.8906 73.7384 56.1581ZM143.222 69.4244C142.389 68.316 142.981 67.4552 144.379 67.742C145.125 67.8951 145.665 68.3583 145.581 68.7721C145.374 69.7794 143.814 70.2109 143.222 69.4244ZM119.352 63.4383C119.443 62.999 120.127 62.7647 120.873 62.9178C121.618 63.0709 122.155 63.5556 122.065 63.995C121.975 64.4343 121.291 64.6686 120.545 64.5155C119.799 64.3624 119.262 63.8777 119.352 63.4383ZM112.366 60.7557C112.516 60.0232 113.05 59.6433 113.552 59.9103C114.054 60.1773 114.395 60.7377 114.31 61.1546C114.224 61.5716 113.69 61.9524 113.123 62.0001C112.557 62.0478 112.215 61.4882 112.366 60.7557ZM69.2156 50.6512C69.3058 50.2119 69.9898 49.9777 70.7357 50.1307C71.4816 50.2838 72.0181 50.7685 71.9279 51.2079C71.8377 51.6472 71.1537 51.8815 70.4078 51.7284C69.6619 51.5753 69.1255 51.0906 69.2156 50.6512ZM75.6238 46.9715C75.7139 46.5322 76.398 46.2979 77.1439 46.451C77.8897 46.6041 78.4262 47.0888 78.336 47.5282C78.2459 47.9675 77.5618 48.2018 76.816 48.0487C76.0701 47.8956 75.5336 47.4109 75.6238 46.9715ZM5.06252 24.0813C0.018746 15.682 -0.0650838 15.4251 1.87514 14.3631C7.57578 11.2433 31.9513 0.547116 32.9115 0.744166C33.8689 0.94066 42.2363 13.6341 43.5319 16.8561C43.8071 17.5395 42.6334 18.6356 40.5272 19.6618C33.0264 23.317 11.2923 32.9362 10.7846 32.8253C10.4869 32.7609 7.91296 28.8262 5.06252 24.0813ZM68.324 32.9238C68.599 32.4882 69.2099 32.2107 69.6827 32.3077C70.1556 32.4048 70.6078 32.9005 70.689 33.4092C70.7702 33.9178 70.1593 34.1954 69.3303 34.0252C68.5012 33.8551 68.049 33.3594 68.324 32.9238Z" fill="#201B19"></path> </svg>

<svg xmlns="http://www.w3.org/2000/svg" width="181" height="141" fill="none"><path fill-rule="evenodd" clip-rule="evenodd" d="M85.462 136.42c-7.3-5.429-9.953-13.056-10.267-29.533-.208-10.815-2.681-21.08-6.751-28.01-1.405-2.393-5.498-8.139-9.097-12.769-5.845-7.52-6.6-8.956-7.089-13.455-.79-7.306 1.751-15.99 6.203-21.189 5.911-6.903 13.546-8.67 26.305-6.085 13.871 2.81 28.511 10.158 38.322 19.235 7.186 6.649 7.628 6.895 15.758 8.77 25.774 5.938 43.585 25.207 41.073 44.434-2.107 16.127-16.017 26.183-46.768 33.812-7.633 1.894-9.466 2.42-17.211 4.94-14.409 4.687-24.037 4.64-30.478-.15Zm1.097-2.52c-1.767-1.39-4.112-4.3-5.211-6.468-1.909-3.761-1.914-3.976-.116-4.676 1.308-.509 1.602-.974.962-1.516-.508-.431-1.353-.651-1.88-.49-1.293.396-2.188-2.403-2.092-6.543.055-2.307.412-3.349 1.1-3.208.56.115 1.138-.369 1.283-1.075.153-.747-.28-1.215-1.036-1.121-.944.118-1.367-1.595-1.546-6.263-.135-3.55-1.443-10.212-2.92-14.884-2.35-7.435-3.634-9.723-10.629-18.938-4.375-5.766-8.397-11.786-8.938-13.379-1.494-4.405-.098-13.72 2.82-18.817 3.066-5.348 7.49-8.31 13.99-9.364 4.54-.737 6.108-.57 14.53 1.549 14.894 3.748 26.342 9.784 35.203 18.562 5.775 5.72 7.098 6.413 17.153 8.964 10.491 2.663 14.18 4.333 21.523 9.744 7.149 5.269 13.537 13.638 15.647 20.501 1.394 4.533 1.416 6.194.171 12.43-1.273 6.365-1.858 7.687-5.065 11.447-5.254 6.158-16.453 12.291-28.741 15.739a1736.767 1736.767 0 0 0-20.029 5.779c-23.664 7.012-29.43 7.335-36.179 2.027Zm21.068-3.097c.863-1.366 2.86-1.212 2.57.199-.143.696-.903 1.133-1.691.971-.787-.162-1.183-.688-.879-1.17Zm-4.199-5.642c-.436-1.01 1.185-1.671 1.869-.761.703.936.321 1.985-.651 1.786-.468-.096-1.016-.558-1.218-1.025Zm-10.26-2.996c.09-.439.774-.674 1.52-.52.745.153 1.282.637 1.192 1.077-.09.439-.775.673-1.52.52-.746-.153-1.283-.638-1.193-1.077Zm-3.537-5.721c.09-.439.57-.715 1.068-.613.497.102.83.545.74.984-.09.44-.571.716-1.068.614-.497-.102-.83-.545-.74-.985Zm39.875 7.699c.289-1.411 2.186-.766 2.44.829.09.563-.481.891-1.268.729-.788-.162-1.315-.863-1.172-1.558Zm7.711-.846c.15-.733.684-1.113 1.186-.846.502.267.843.828.758 1.245-.086.417-.62.797-1.187.845-.566.048-.907-.512-.757-1.244Zm6.16-7.061c.135-.659.856-1.073 1.602-.92.746.153 1.245.818 1.11 1.477-.135.659-.856 1.073-1.602.92-.746-.153-1.246-.818-1.11-1.477Zm8.006.649c-.834-1.108-.241-1.969 1.156-1.682.746.153 1.287.616 1.202 1.03-.207 1.007-1.767 1.439-2.358.652Zm-47.624-14.191c.09-.439.774-.673 1.52-.52.746.153 1.282.638 1.192 1.077-.09.439-.774.674-1.52.52-.746-.153-1.283-.637-1.192-1.077Zm29.996.745c.15-.732.684-1.112 1.186-.845.502.267.843.827.758 1.244-.086.417-.62.798-1.187.846-.566.047-.907-.512-.757-1.245Zm-29.403-7.345c.275-.436.886-.713 1.359-.616.473.097.925.593 1.006 1.101.081.509-.53.786-1.359.616-.829-.17-1.281-.666-1.006-1.101Zm21.254 1.144c.085-.414.607-.89 1.16-1.06.553-.17.89.252.75.937-.141.684-.663 1.162-1.16 1.06-.497-.102-.835-.524-.75-.938Zm6.852-.37c.275-.436.886-.714 1.359-.617.473.097.925.593 1.006 1.102.081.508-.529.786-1.359.616-.829-.17-1.281-.666-1.006-1.102Zm-34.754-7.649c-.833-1.108-.24-1.969 1.157-1.682.746.153 1.287.616 1.202 1.03-.207 1.007-1.767 1.439-2.359.652Zm26.511 1.024c.09-.44.774-.673 1.52-.52.746.153 1.282.637 1.192 1.077-.09.44-.774.673-1.52.52-.746-.153-1.282-.638-1.192-1.077ZM98.57 82.066c.136-.659.653-1.114 1.15-1.012.498.102.794.724.659 1.383-.136.66-.653 1.115-1.15 1.013-.498-.102-.794-.725-.659-1.384Zm-24.54-6.03c-.834-1.109-.242-1.97 1.156-1.683.746.154 1.287.617 1.202 1.03-.207 1.008-1.767 1.44-2.358.653Zm89.138 12.628c.15-.733.684-1.112 1.186-.846.502.268.843.828.758 1.245-.086.417-.62.798-1.187.845-.566.048-.908-.511-.757-1.244ZM83.772 71.537c.136-.659.653-1.115 1.15-1.013.498.102.794.725.659 1.384-.136.66-.653 1.115-1.15 1.013-.498-.102-.794-.725-.659-1.384Zm-7.816-2.177c.862-1.366 2.86-1.212 2.57.199-.143.695-.904 1.132-1.691.97-.788-.161-1.184-.687-.88-1.169Zm97.471 19.814c.143-.696.903-1.133 1.691-.971 1.596.327.966 1.99-.812 2.14-.627.053-1.022-.474-.879-1.17ZM86.174 66.577c-.606-1.405.732-1.956 1.683-.692.531.707.455 1.157-.232 1.367-.563.173-1.215-.131-1.45-.675Zm6.8 1.438c.091-.44.775-.674 1.521-.521.746.153 1.282.638 1.192 1.077-.09.44-.774.674-1.52.52-.746-.152-1.282-.637-1.192-1.076Zm34.684 5.453c.09-.44.774-.674 1.52-.52.746.152 1.282.637 1.192 1.076-.09.44-.774.674-1.52.52-.746-.152-1.282-.637-1.192-1.076ZM67.486 60.129c.863-1.366 2.86-1.212 2.57.2-.143.695-.903 1.132-1.69.97-.788-.162-1.184-.688-.88-1.17Zm71.061 13.076c-.217-.502.24-.783 1.014-.624.775.159 1.336.648 1.246 1.088-.09.44-.546.72-1.015.624-.468-.096-1.028-.586-1.245-1.088Zm-35.903-7.924c-.852-1.132-.277-1.999 1.135-1.709.746.153 1.246.818 1.11 1.477-.256 1.247-1.394 1.365-2.245.232Zm-7.07-2.283c-.851-1.132-.275-1.999 1.137-1.71.746.154 1.245.819 1.11 1.478-.256 1.247-1.395 1.365-2.246.232Zm37.211 6.782c-.833-1.109-.241-1.97 1.157-1.683.746.154 1.287.617 1.202 1.03-.207 1.008-1.767 1.44-2.359.653Zm16.732 2.763c.136-.66.653-1.115 1.15-1.013.498.102.794.725.659 1.384-.136.659-.653 1.115-1.15 1.013-.498-.102-.794-.725-.659-1.384ZM73.738 56.158c.15-.732.685-1.112 1.187-.845.502.267.843.827.757 1.244-.085.417-.62.798-1.186.845-.567.048-.908-.511-.758-1.244Zm69.484 13.266c-.833-1.108-.241-1.969 1.157-1.682.746.153 1.286.616 1.202 1.03-.207 1.007-1.767 1.439-2.359.652Zm-23.87-5.986c.091-.439.775-.673 1.521-.52.745.153 1.282.638 1.192 1.077-.09.44-.774.674-1.52.52-.746-.153-1.283-.637-1.193-1.077Zm-6.986-2.682c.15-.733.684-1.113 1.186-.846.502.267.843.828.758 1.245-.086.417-.62.797-1.187.845-.566.048-.908-.512-.757-1.244ZM69.216 50.65c.09-.44.774-.673 1.52-.52.746.153 1.282.638 1.192 1.077-.09.44-.774.674-1.52.52-.746-.153-1.282-.637-1.192-1.077Zm6.408-3.68c.09-.439.774-.673 1.52-.52.746.153 1.282.638 1.192 1.077-.09.44-.774.674-1.52.52-.746-.152-1.282-.637-1.192-1.077ZM5.063 24.081c-5.044-8.399-5.128-8.656-3.188-9.718C7.575 11.243 31.951.547 32.911.744c.958.197 9.325 12.89 10.62 16.112.276.683-.898 1.78-3.004 2.806-7.5 3.655-29.235 13.274-29.742 13.163-.298-.064-2.872-3.999-5.722-8.744Zm63.261 8.843c.275-.436.886-.713 1.359-.616.473.097.925.593 1.006 1.101.081.509-.53.786-1.359.616-.829-.17-1.281-.666-1.006-1.101Z" fill="#201B19"/></svg>
